;FLAVOR:Marlin
;TIME:6511
;Filament used: 5.0019m
;Layer height: 0.2
;MINX:30.88
;MINY:72.5
;MINZ:0.2
;MAXX:138.9
;MAXY:149.45
;MAXZ:19
;Generated with Creality Slicer 4.8.2-67
M140 S50
M105
M190 S50
M104 S200
M105
M109 S200
M82 ;absolute extrusion mode
M201 X500.00 Y500.00 Z100.00 E5000.00 ;Setup machine max acceleration
M203 X500.00 Y500.00 Z10.00 E50.00 ;Setup machine max feedrate
M204 P500.00 R1000.00 T500.00 ;Setup Print/Retract/Travel acceleration
M205 X8.00 Y8.00 Z0.40 E5.00 ;Setup Jerk
M220 S100 ;Reset Feedrate
M221 S100 ;Reset Flowrate

G28 ;Home

G92 E0 ;Reset Extruder
G1 Z2.0 F3000 ;Move Z Axis up
G1 X10.1 Y20 Z0.28 F5000.0 ;Move to start position
G1 X10.1 Y200.0 Z0.28 F1500.0 E15 ;Draw the first line
G1 X10.4 Y200.0 Z0.28 F5000.0 ;Move to side a little
G1 X10.4 Y20 Z0.28 F1500.0 E30 ;Draw the second line
G92 E0 ;Reset Extruder
G1 Z2.0 F3000 ;Move Z Axis up

G92 E0
G92 E0
G1 F2700 E-5
;LAYER_COUNT:95
;LAYER:0
M107
G0 F6000 X37.114 Y75.649 Z0.2
;TYPE:SKIRT
G1 F2700 E0
G1 F1200 X37.976 Y75.279 E0.03432
G1 X38.866 Y74.983 E0.06864
G1 X39.778 Y74.764 E0.10295
G1 X40.705 Y74.623 E0.13726
G1 X41.581 Y74.563 E0.16938
G1 X41.902 Y74.554 E0.18113
G1 X42.21 Y74.55 E0.1924
G1 X71.919 Y74.55 E1.27934
G1 X74.527 Y74.513 E1.37476
G1 X77.048 Y74.406 E1.46708
G1 X79.543 Y74.229 E1.55859
G1 X82.043 Y73.981 E1.65051
G1 X84.536 Y73.662 E1.74246
G1 X87.035 Y73.27 E1.83501
G1 X89.668 Y72.779 E1.933
G1 X89.959 Y72.721 E1.94385
G1 X90.886 Y72.577 E1.97818
G1 X91.801 Y72.513 E2.01173
G1 X92.121 Y72.504 E2.02345
G1 X92.43 Y72.5 E2.03475
G1 X127.193 Y72.5 E3.3066
G1 X128.049 Y72.511 E3.33792
G1 X128.985 Y72.565 E3.37222
G1 X129.913 Y72.697 E3.40651
G1 X130.827 Y72.909 E3.44084
G1 X131.719 Y73.198 E3.47514
G1 X132.584 Y73.561 E3.50946
G1 X133.414 Y73.997 E3.54377
G1 X134.205 Y74.502 E3.5781
G1 X134.949 Y75.073 E3.61241
G1 X135.642 Y75.705 E3.64673
G1 X136.279 Y76.393 E3.68103
G1 X136.854 Y77.134 E3.71535
G1 X137.365 Y77.92 E3.74965
G1 X137.807 Y78.748 E3.78399
G1 X138.176 Y79.61 E3.81829
G1 X138.471 Y80.5 E3.85259
G1 X138.689 Y81.412 E3.8869
G1 X138.829 Y82.34 E3.92124
G1 X138.887 Y83.201 E3.95281
G1 X138.896 Y83.521 E3.96452
G1 X138.9 Y83.83 E3.97583
G1 X138.899 Y135.9 E5.88087
G1 X138.89 Y136.627 E5.90747
G1 X138.839 Y137.564 E5.9418
G1 X138.707 Y138.492 E5.97609
G1 X138.498 Y139.406 E6.0104
G1 X138.211 Y140.299 E6.04471
G1 X137.849 Y141.165 E6.07905
G1 X137.415 Y141.996 E6.11335
G1 X136.911 Y142.787 E6.14767
G1 X136.342 Y143.532 E6.18197
G1 X135.711 Y144.227 E6.21631
G1 X135.024 Y144.865 E6.25061
G1 X134.285 Y145.442 E6.28491
G1 X133.499 Y145.954 E6.31923
G1 X132.673 Y146.397 E6.35353
G1 X131.811 Y146.769 E6.38787
G1 X130.922 Y147.065 E6.42216
G1 X130.01 Y147.285 E6.45648
G1 X129.083 Y147.426 E6.49078
G1 X128.199 Y147.487 E6.5232
G1 X127.878 Y147.496 E6.53495
G1 X127.57 Y147.5 E6.54622
G1 X101.755 Y147.5 E7.49069
G1 X99.147 Y147.537 E7.58612
G1 X96.626 Y147.644 E7.67844
G1 X94.131 Y147.821 E7.76995
G1 X91.631 Y148.069 E7.86186
G1 X89.138 Y148.388 E7.95382
G1 X86.625 Y148.783 E8.04689
G1 X84.064 Y149.258 E8.14218
G1 X83.899 Y149.286 E8.1483
G1 X82.969 Y149.403 E8.1826
G1 X82.369 Y149.437 E8.20458
G1 X82.05 Y149.446 E8.21626
G1 X81.74 Y149.45 E8.2276
G1 X42.445 Y149.449 E9.66525
G1 X41.747 Y149.44 E9.69079
G1 X40.811 Y149.388 E9.72509
G1 X39.882 Y149.256 E9.75942
G1 X38.968 Y149.046 E9.79373
G1 X38.075 Y148.759 E9.82805
G1 X37.21 Y148.396 E9.86237
G1 X36.379 Y147.962 E9.89667
G1 X35.588 Y147.458 E9.93098
G1 X34.843 Y146.888 E9.9653
G1 X34.149 Y146.257 E9.99962
G1 X33.512 Y145.57 E10.0339
G1 X32.935 Y144.83 E10.06823
G1 X32.423 Y144.044 E10.10255
G1 X31.98 Y143.217 E10.13687
G1 X31.609 Y142.356 E10.17117
G1 X31.313 Y141.466 E10.20549
G1 X31.094 Y140.554 E10.2398
G1 X30.953 Y139.627 E10.27411
G1 X30.893 Y138.738 E10.30671
G1 X30.884 Y138.405 E10.3189
G1 X30.88 Y138.108 E10.32976
G1 X30.881 Y86.104 E12.23239
G1 X30.89 Y85.415 E12.2576
G1 X30.942 Y84.479 E12.2919
G1 X31.074 Y83.55 E12.32623
G1 X31.284 Y82.636 E12.36054
G1 X31.572 Y81.744 E12.39483
G1 X31.934 Y80.879 E12.42914
G1 X32.369 Y80.048 E12.46345
G1 X32.873 Y79.257 E12.49777
G1 X33.443 Y78.512 E12.53209
G1 X34.074 Y77.818 E12.56641
G1 X34.762 Y77.18 E12.60073
G1 X35.501 Y76.604 E12.63501
G1 X36.287 Y76.092 E12.66933
G1 X37.114 Y75.649 E12.70366
G0 F6000 X37.487 Y75.916
G1 F1200 X38.34 Y75.571 E12.73732
G1 X39.22 Y75.3 E12.77101
G1 X40.12 Y75.108 E12.80468
G1 X41.034 Y74.994 E12.83838
G1 X41.592 Y74.963 E12.85882
G1 X41.913 Y74.954 E12.87057
G1 X42.21 Y74.95 E12.88144
G1 X71.925 Y74.95 E13.9686
G1 X74.55 Y74.913 E14.06465
G1 X77.058 Y74.806 E14.15649
G1 X79.578 Y74.628 E14.24891
G1 X82.093 Y74.379 E14.34138
G1 X84.582 Y74.06 E14.43319
G1 X87.099 Y73.664 E14.52641
G1 X89.818 Y73.158 E14.62759
G1 X90.037 Y73.114 E14.63576
G1 X90.947 Y72.973 E14.66945
G1 X91.812 Y72.913 E14.70118
G1 X92.132 Y72.904 E14.71289
G1 X92.43 Y72.9 E14.72379
G1 X127.193 Y72.9 E15.99564
G1 X128.043 Y72.911 E16.02674
G1 X128.962 Y72.964 E16.06042
G1 X129.873 Y73.097 E16.0941
G1 X130.769 Y73.308 E16.12778
G1 X131.643 Y73.596 E16.16145
G1 X132.49 Y73.959 E16.19516
G1 X133.301 Y74.394 E16.22883
G1 X134.071 Y74.898 E16.2625
G1 X134.795 Y75.467 E16.29619
G1 X135.467 Y76.097 E16.32989
G1 X136.082 Y76.782 E16.36357
G1 X136.635 Y77.518 E16.39725
G1 X137.122 Y78.299 E16.43093
G1 X137.539 Y79.12 E16.46461
G1 X137.884 Y79.974 E16.49831
G1 X138.153 Y80.854 E16.53198
G1 X138.345 Y81.755 E16.56568
G1 X138.458 Y82.668 E16.59934
G1 X138.487 Y83.212 E16.61927
G1 X138.496 Y83.532 E16.63098
G1 X138.5 Y83.83 E16.64189
G1 X138.499 Y135.895 E18.54675
G1 X138.49 Y136.622 E18.57335
G1 X138.439 Y137.541 E18.60702
G1 X138.308 Y138.453 E18.64073
G1 X138.098 Y139.349 E18.6744
G1 X137.812 Y140.224 E18.70808
G1 X137.451 Y141.071 E18.74176
G1 X137.017 Y141.883 E18.77545
G1 X136.515 Y142.655 E18.80914
G1 X135.947 Y143.38 E18.84284
G1 X135.319 Y144.053 E18.87651
G1 X134.635 Y144.669 E18.91019
G1 X133.9 Y145.223 E18.94387
G1 X133.12 Y145.712 E18.97755
G1 X132.3 Y146.131 E19.01124
G1 X131.447 Y146.477 E19.04491
G1 X130.567 Y146.748 E19.0786
G1 X129.667 Y146.941 E19.11228
G1 X128.753 Y147.056 E19.14598
G1 X128.188 Y147.087 E19.16668
G1 X127.867 Y147.096 E19.17843
G1 X127.57 Y147.1 E19.1893
G1 X101.749 Y147.1 E20.13399
G1 X99.124 Y147.137 E20.23004
G1 X96.616 Y147.244 E20.32188
G1 X94.096 Y147.422 E20.41431
G1 X91.581 Y147.671 E20.50677
G1 X89.092 Y147.99 E20.59858
G1 X86.561 Y148.388 E20.69232
G1 X83.997 Y148.864 E20.78773
G1 X83.832 Y148.892 E20.79385
G1 X82.919 Y149.006 E20.82751
G1 X82.358 Y149.037 E20.84807
G1 X82.039 Y149.046 E20.85974
G1 X81.74 Y149.05 E20.87068
G1 X42.45 Y149.049 E22.30815
G1 X41.752 Y149.04 E22.33369
G1 X40.833 Y148.988 E22.36737
G1 X39.922 Y148.857 E22.40104
G1 X39.026 Y148.647 E22.43471
G1 X38.151 Y148.36 E22.4684
G1 X37.304 Y147.998 E22.5021
G1 X36.492 Y147.564 E22.53579
G1 X35.721 Y147.062 E22.56945
G1 X34.996 Y146.494 E22.60314
G1 X34.323 Y145.865 E22.63685
G1 X33.708 Y145.181 E22.6705
G1 X33.154 Y144.446 E22.70417
G1 X32.666 Y143.665 E22.73787
G1 X32.247 Y142.845 E22.77156
G1 X31.901 Y141.992 E22.80523
G1 X31.631 Y141.112 E22.83891
G1 X31.438 Y140.211 E22.87262
G1 X31.324 Y139.298 E22.90629
G1 X31.293 Y138.727 E22.92721
G1 X31.284 Y138.394 E22.9394
G1 X31.28 Y138.108 E22.94986
G1 X31.281 Y86.11 E24.85227
G1 X31.29 Y85.421 E24.87748
G1 X31.342 Y84.501 E24.91119
G1 X31.473 Y83.59 E24.94486
G1 X31.684 Y82.694 E24.97854
G1 X31.971 Y81.819 E25.01223
G1 X32.333 Y80.973 E25.0459
G1 X32.767 Y80.161 E25.07958
G1 X33.269 Y79.389 E25.11327
G1 X33.837 Y78.665 E25.14694
G1 X34.466 Y77.992 E25.18064
G1 X35.151 Y77.377 E25.21432
G1 X35.886 Y76.823 E25.248
G1 X36.667 Y76.335 E25.28169
G1 X37.487 Y75.916 E25.31538
G0 F6000 X37.857 Y76.19
G1 F1200 X38.702 Y75.87 E25.34844
G1 X39.572 Y75.626 E25.3815
G1 X40.459 Y75.46 E25.41451
G1 X41.603 Y75.363 E25.45652
G1 X41.924 Y75.354 E25.46827
G1 X42.21 Y75.35 E25.47873
G1 X71.931 Y75.35 E26.56611
G1 X74.537 Y75.313 E26.66146
G1 X77.102 Y75.204 E26.75539
G1 X79.609 Y75.026 E26.84734
G1 X82.15 Y74.775 E26.94076
G1 X84.658 Y74.454 E27.03327
G1 X87.163 Y74.06 E27.12604
G1 X89.814 Y73.566 E27.2247
G1 X90.115 Y73.506 E27.23593
G1 X91.008 Y73.369 E27.26898
G1 X91.823 Y73.313 E27.29887
G1 X92.143 Y73.304 E27.31058
G1 X92.43 Y73.3 E27.32108
G1 X127.193 Y73.3 E28.59293
G1 X128.037 Y73.311 E28.62381
G1 X128.939 Y73.364 E28.65687
G1 X129.832 Y73.496 E28.68989
G1 X130.71 Y73.707 E28.72293
G1 X131.566 Y73.995 E28.75597
G1 X132.393 Y74.357 E28.789
G1 X133.185 Y74.792 E28.82206
G1 X133.936 Y75.294 E28.85511
G1 X134.639 Y75.861 E28.88815
G1 X135.289 Y76.488 E28.9212
G1 X135.881 Y77.17 E28.95424
G1 X136.411 Y77.901 E28.98727
G1 X136.873 Y78.677 E29.02031
G1 X137.266 Y79.49 E29.05335
G1 X137.584 Y80.335 E29.08638
G1 X137.827 Y81.205 E29.11943
G1 X137.992 Y82.093 E29.15247
G1 X138.087 Y83.223 E29.19396
G1 X138.096 Y83.543 E29.20567
G1 X138.1 Y83.83 E29.21618
G1 X138.099 Y135.89 E31.12085
G1 X138.09 Y136.617 E31.14745
G1 X138.039 Y137.519 E31.1805
G1 X137.908 Y138.413 E31.21356
G1 X137.699 Y139.291 E31.24658
G1 X137.413 Y140.148 E31.27964
G1 X137.052 Y140.976 E31.31268
G1 X136.62 Y141.768 E31.34569
G1 X136.119 Y142.52 E31.37875
G1 X135.553 Y143.224 E31.4118
G1 X134.928 Y143.875 E31.44482
G1 X134.247 Y144.469 E31.47788
G1 X133.516 Y145 E31.51093
G1 X132.742 Y145.464 E31.54395
G1 X131.929 Y145.858 E31.577
G1 X131.085 Y146.178 E31.61003
G1 X130.215 Y146.423 E31.64309
G1 X129.328 Y146.589 E31.67611
G1 X128.177 Y146.687 E31.71837
G1 X127.856 Y146.696 E31.73012
G1 X127.57 Y146.7 E31.74059
G1 X101.743 Y146.7 E32.6855
G1 X99.137 Y146.737 E32.78085
G1 X96.572 Y146.846 E32.87478
G1 X94.065 Y147.024 E32.96673
G1 X91.524 Y147.275 E33.06015
G1 X89.016 Y147.596 E33.15265
G1 X86.532 Y147.987 E33.24465
G1 X84.091 Y148.441 E33.33549
G1 X83.766 Y148.497 E33.34756
G1 X82.869 Y148.609 E33.38063
G1 X82.347 Y148.637 E33.39976
G1 X82.028 Y148.646 E33.41143
G1 X81.74 Y148.65 E33.42197
G1 X42.455 Y148.649 E34.85926
G1 X41.757 Y148.64 E34.88479
G1 X40.856 Y148.589 E34.91781
G1 X39.962 Y148.457 E34.95087
G1 X39.084 Y148.248 E34.98389
G1 X38.227 Y147.961 E35.01696
G1 X37.4 Y147.6 E35.04997
G1 X36.607 Y147.167 E35.08303
G1 X35.856 Y146.666 E35.11606
G1 X35.152 Y146.1 E35.14911
G1 X34.501 Y145.474 E35.18215
G1 X33.908 Y144.793 E35.21519
G1 X33.378 Y144.062 E35.24822
G1 X32.914 Y143.287 E35.28127
G1 X32.52 Y142.474 E35.31432
G1 X32.2 Y141.63 E35.34735
G1 X31.956 Y140.76 E35.38041
G1 X31.79 Y139.872 E35.41346
G1 X31.693 Y138.717 E35.45586
G1 X31.684 Y138.384 E35.46805
G1 X31.68 Y138.108 E35.47815
G1 X31.681 Y86.115 E37.38037
G1 X31.69 Y85.426 E37.40558
G1 X31.742 Y84.524 E37.43864
G1 X31.873 Y83.631 E37.47166
G1 X32.083 Y82.752 E37.50472
G1 X32.369 Y81.896 E37.53774
G1 X32.731 Y81.068 E37.5708
G1 X33.164 Y80.276 E37.60383
G1 X33.665 Y79.525 E37.63686
G1 X34.231 Y78.821 E37.66991
G1 X34.857 Y78.17 E37.70295
G1 X35.539 Y77.577 E37.73601
G1 X36.27 Y77.047 E37.76905
G1 X37.044 Y76.583 E37.80206
G1 X37.857 Y76.19 E37.8351
G1 F2700 E32.8351
;MESH:bottom_case.stl
G0 F6000 X42.3 Y84.885
G0 X42.3 Y85.97
G0 X42.662 Y137.668
G0 X81.47 Y137.85
;TYPE:WALL-INNER
G1 F2700 E37.8351
G1 F1200 X42.48 Y137.85 E39.2616
G1 X42.48 Y86.349 E41.14582
G1 X42.48 Y86.15 E41.1531
G1 X42.679 Y86.15 E41.15781
G1 X81.47 Y86.151 E42.57702
G1 X81.47 Y137.85 E44.46849
G0 F6000 X81.87 Y138.25
;TYPE:WALL-OUTER
G1 F1200 X42.08 Y138.25 E45.92425
G1 X42.08 Y85.75 E47.84503
G1 X81.87 Y85.751 E49.30079
G1 X81.87 Y138.25 E51.22153
G0 F6000 X81.6 Y137.98
G0 X81.36 Y137.46
G0 X81.08 Y137.46
;TYPE:SKIN
G1 F1200 X42.87 Y137.46 E52.61948
G1 X42.87 Y86.54 E54.48245
G1 X81.08 Y86.541 E55.88041
G1 X81.08 Y137.46 E57.74334
G1 F2700 E52.74334
G0 F6000 X81.36 Y137.46
G0 X43.395 Y137.74
G0 X43.395 Y137.298
G1 F2700 E57.74334
G1 F1200 X43.029 Y136.933 E57.76225
G0 F6000 X43.029 Y136.367
G1 F1200 X43.96 Y137.298 E57.81042
G0 F6000 X44.526 Y137.298
G1 F1200 X43.029 Y135.801 E57.88787
G0 F6000 X43.029 Y135.236
G1 F1200 X45.092 Y137.298 E57.99459
G0 F6000 X45.657 Y137.298
G1 F1200 X43.029 Y134.67 E58.13056
G0 F6000 X43.029 Y134.104
G1 F1200 X46.223 Y137.298 E58.29582
G0 F6000 X46.789 Y137.298
G1 F1200 X43.029 Y133.539 E58.49034
G0 F6000 X43.029 Y132.973
G1 F1200 X47.354 Y137.298 E58.71412
G0 F6000 X47.92 Y137.298
G1 F1200 X43.029 Y132.407 E58.96718
G0 F6000 X43.029 Y131.842
G1 F1200 X48.486 Y137.298 E59.24951
G0 F6000 X49.051 Y137.298
G1 F1200 X43.029 Y131.276 E59.56109
G0 F6000 X43.029 Y130.71
G1 F1200 X49.617 Y137.298 E59.90196
G0 F6000 X50.183 Y137.298
G1 F1200 X43.029 Y130.145 E60.27208
G0 F6000 X43.029 Y129.579
G1 F1200 X50.749 Y137.298 E60.67149
G0 F6000 X51.314 Y137.298
G1 F1200 X43.029 Y129.013 E61.10016
G0 F6000 X43.029 Y128.448
G1 F1200 X51.88 Y137.298 E61.55809
G0 F6000 X52.446 Y137.298
G1 F1200 X43.029 Y127.882 E62.04531
G0 F6000 X43.029 Y127.316
G1 F1200 X53.011 Y137.298 E62.56179
G0 F6000 X53.577 Y137.298
G1 F1200 X43.029 Y126.751 E63.10752
G0 F6000 X43.029 Y126.185
G1 F1200 X54.143 Y137.298 E63.68254
G0 F6000 X54.708 Y137.298
G1 F1200 X43.029 Y125.619 E64.28682
G0 F6000 X43.029 Y125.053
G1 F1200 X55.274 Y137.298 E64.92038
G0 F6000 X55.84 Y137.298
G1 F1200 X43.029 Y124.488 E65.58321
G0 F6000 X43.029 Y123.922
G1 F1200 X56.405 Y137.298 E66.27529
G0 F6000 X56.971 Y137.298
G1 F1200 X43.029 Y123.356 E66.99666
G0 F6000 X43.029 Y122.791
G1 F1200 X57.537 Y137.298 E67.74728
G0 F6000 X58.102 Y137.298
G1 F1200 X43.029 Y122.225 E68.52717
G0 F6000 X43.029 Y121.659
G1 F1200 X58.668 Y137.298 E69.33634
G0 F6000 X59.234 Y137.298
G1 F1200 X43.029 Y121.094 E70.17477
G0 F6000 X43.029 Y120.528
G1 F1200 X59.8 Y137.298 E71.04249
G0 F6000 X60.365 Y137.298
G1 F1200 X43.029 Y119.962 E71.93946
G0 F6000 X43.029 Y119.397
G1 F1200 X60.931 Y137.298 E72.8657
G0 F6000 X61.497 Y137.298
G1 F1200 X43.029 Y118.831 E73.82122
G0 F6000 X43.029 Y118.265
G1 F1200 X62.062 Y137.298 E74.806
G0 F6000 X62.628 Y137.298
G1 F1200 X43.029 Y117.7 E75.82004
G0 F6000 X43.029 Y117.134
G1 F1200 X63.194 Y137.298 E76.86336
G0 F6000 X63.759 Y137.298
G1 F1200 X43.029 Y116.568 E77.93594
G0 F6000 X43.029 Y116.002
G1 F1200 X64.325 Y137.298 E79.03781
G0 F6000 X64.891 Y137.298
G1 F1200 X43.029 Y115.437 E80.16894
G0 F6000 X43.029 Y114.871
G1 F1200 X65.456 Y137.298 E81.32933
G0 F6000 X66.022 Y137.298
G1 F1200 X43.029 Y114.305 E82.519
G0 F6000 X43.029 Y113.74
G1 F1200 X66.588 Y137.298 E83.73793
G0 F6000 X67.153 Y137.298
G1 F1200 X43.029 Y113.174 E84.98612
G0 F6000 X43.029 Y112.608
G1 F1200 X67.719 Y137.298 E86.2636
G0 F6000 X68.285 Y137.298
G1 F1200 X43.029 Y112.043 E87.57033
G0 F6000 X43.029 Y111.477
G1 F1200 X68.85 Y137.298 E88.90633
G0 F6000 X69.416 Y137.298
G1 F1200 X43.029 Y110.911 E90.27161
G0 F6000 X43.029 Y110.346
G1 F1200 X69.982 Y137.298 E91.66615
G0 F6000 X70.548 Y137.298
G1 F1200 X43.029 Y109.78 E93.08997
G0 F6000 X43.029 Y109.214
G1 F1200 X71.113 Y137.298 E94.54306
G0 F6000 X71.679 Y137.298
G1 F1200 X43.029 Y108.649 E96.0254
G0 F6000 X43.029 Y108.083
G1 F1200 X72.245 Y137.298 E97.53703
G0 F6000 X72.81 Y137.298
G1 F1200 X43.029 Y107.517 E99.07791
G0 F6000 X43.029 Y106.952
G1 F1200 X73.376 Y137.298 E100.64806
G0 F6000 X73.942 Y137.298
G1 F1200 X43.029 Y106.386 E102.24749
G0 F6000 X43.029 Y105.82
G1 F1200 X74.507 Y137.298 E103.87619
G0 F6000 X75.073 Y137.298
G1 F1200 X43.029 Y105.254 E105.53416
G0 F6000 X43.029 Y104.689
G1 F1200 X75.639 Y137.298 E107.2214
G0 F6000 X76.204 Y137.298
G1 F1200 X43.029 Y104.123 E108.93789
G0 F6000 X43.029 Y103.557
G1 F1200 X76.77 Y137.298 E110.68367
G0 F6000 X77.336 Y137.298
G1 F1200 X43.029 Y102.992 E112.45871
G0 F6000 X43.029 Y102.426
G1 F1200 X77.901 Y137.298 E114.26301
G0 F6000 X78.467 Y137.298
G1 F1200 X43.029 Y101.86 E116.0966
G0 F6000 X43.029 Y101.295
G1 F1200 X79.033 Y137.298 E117.95944
G0 F6000 X79.599 Y137.298
G1 F1200 X43.029 Y100.729 E119.85157
G0 F6000 X43.029 Y100.163
G1 F1200 X80.164 Y137.298 E121.77296
G0 F6000 X80.73 Y137.298
G1 F1200 X43.029 Y99.598 E123.72361
G0 F6000 X43.029 Y99.032
G1 F1200 X80.919 Y136.922 E125.68406
G0 F6000 X80.919 Y136.357
G1 F1200 X43.029 Y98.466 E127.64454
G0 F6000 X43.029 Y97.901
G1 F1200 X80.919 Y135.791 E129.60499
G0 F6000 X80.919 Y135.225
