;FLAVOR:Marlin
;TIME:6211
;Filament used: 4.31891m
;Layer height: 0.2
;MINX:30.88
;MINY:72.5
;MINZ:0.2
;MAXX:138.9
;MAXY:149.45
;MAXZ:19
;Generated with Creality Slicer 4.8.2-67
M140 S50
M105
M190 S50
M104 S200
M105
M109 S200
M82 ;absolute extrusion mode
M201 X500.00 Y500.00 Z100.00 E5000.00 ;Setup machine max acceleration
M203 X500.00 Y500.00 Z10.00 E50.00 ;Setup machine max feedrate
M204 P500.00 R1000.00 T500.00 ;Setup Print/Retract/Travel acceleration
M205 X8.00 Y8.00 Z0.40 E5.00 ;Setup Jerk
M220 S100 ;Reset Feedrate
M221 S100 ;Reset Flowrate

G28 ;Home

G92 E0 ;Reset Extruder
G1 Z2.0 F3000 ;Move Z Axis up
G1 X10.1 Y20 Z0.28 F5000.0 ;Move to start position
G1 X10.1 Y200.0 Z0.28 F1500.0 E15 ;Draw the first line
G1 X10.4 Y200.0 Z0.28 F5000.0 ;Move to side a little
G1 X10.4 Y20 Z0.28 F1500.0 E30 ;Draw the second line
G92 E0 ;Reset Extruder
G1 Z2.0 F3000 ;Move Z Axis up

G92 E0
G92 E0
G1 F2700 E-5
;LAYER_COUNT:95
;LAYER:0
M107
G0 F6000 X37.114 Y75.649 Z0.2
;TYPE:SKIRT
G1 F2700 E0
G1 F1200 X37.976 Y75.279 E0.0312
G1 X38.866 Y74.983 E0.0624
G1 X39.778 Y74.764 E0.09359
G1 X40.705 Y74.623 E0.12478
G1 X41.581 Y74.563 E0.15398
G1 X41.902 Y74.554 E0.16466
G1 X42.21 Y74.55 E0.17491
G1 X71.919 Y74.55 E1.16303
G1 X74.527 Y74.513 E1.24978
G1 X77.048 Y74.406 E1.33371
G1 X79.543 Y74.229 E1.4169
G1 X82.043 Y73.981 E1.50046
G1 X84.536 Y73.662 E1.58405
G1 X87.035 Y73.27 E1.66819
G1 X89.668 Y72.779 E1.75727
G1 X89.959 Y72.721 E1.76714
G1 X90.886 Y72.577 E1.79834
G1 X91.801 Y72.513 E1.82885
G1 X92.121 Y72.504 E1.8395
G1 X92.43 Y72.5 E1.84977
G1 X127.193 Y72.5 E3.006
G1 X128.049 Y72.511 E3.03447
G1 X128.985 Y72.565 E3.06565
G1 X129.913 Y72.697 E3.09683
G1 X130.827 Y72.909 E3.12804
G1 X131.719 Y73.198 E3.15922
G1 X132.584 Y73.561 E3.19042
G1 X133.414 Y73.997 E3.22161
G1 X134.205 Y74.502 E3.25282
G1 X134.949 Y75.073 E3.28401
G1 X135.642 Y75.705 E3.31521
G1 X136.279 Y76.393 E3.34639
G1 X136.854 Y77.134 E3.37759
G1 X137.365 Y77.92 E3.40877
G1 X137.807 Y78.748 E3.43999
G1 X138.176 Y79.61 E3.47117
G1 X138.471 Y80.5 E3.50236
G1 X138.689 Y81.412 E3.53355
G1 X138.829 Y82.34 E3.56476
G1 X138.887 Y83.201 E3.59346
G1 X138.896 Y83.521 E3.60411
G1 X138.9 Y83.83 E3.61439
G1 X138.899 Y135.9 E5.34624
G1 X138.89 Y136.627 E5.37043
G1 X138.839 Y137.564 E5.40164
G1 X138.707 Y138.492 E5.43281
G1 X138.498 Y139.406 E5.464
G1 X138.211 Y140.299 E5.49519
G1 X137.849 Y141.165 E5.52641
G1 X137.415 Y141.996 E5.55759
G1 X136.911 Y142.787 E5.58879
G1 X136.342 Y143.532 E5.61997
G1 X135.711 Y144.227 E5.65119
G1 X135.024 Y144.865 E5.68237
G1 X134.285 Y145.442 E5.71356
G1 X133.499 Y145.954 E5.74476
G1 X132.673 Y146.397 E5.77593
G1 X131.811 Y146.769 E5.80716
G1 X130.922 Y147.065 E5.83832
G1 X130.01 Y147.285 E5.86953
G1 X129.083 Y147.426 E5.90071
G1 X128.199 Y147.487 E5.93018
G1 X127.878 Y147.496 E5.94087
G1 X127.57 Y147.5 E5.95111
G1 X101.755 Y147.5 E6.80972
G1 X99.147 Y147.537 E6.89647
G1 X96.626 Y147.644 E6.9804
G1 X94.131 Y147.821 E7.06359
G1 X91.631 Y148.069 E7.14715
G1 X89.138 Y148.388 E7.23074
G1 X86.625 Y148.783 E7.31535
G1 X84.064 Y149.258 E7.40198
G1 X83.899 Y149.286 E7.40755
G1 X82.969 Y149.403 E7.43872
G1 X82.369 Y149.437 E7.45871
G1 X82.05 Y149.446 E7.46933
G1 X81.74 Y149.45 E7.47964
G1 X42.445 Y149.449 E8.78659
G1 X41.747 Y149.44 E8.80981
G1 X40.811 Y149.388 E8.84099
G1 X39.882 Y149.256 E8.8722
G1 X38.968 Y149.046 E8.90339
G1 X38.075 Y148.759 E8.93459
G1 X37.21 Y148.396 E8.96579
G1 X36.379 Y147.962 E8.99697
G1 X35.588 Y147.458 E9.02817
G1 X34.843 Y146.888 E9.05937
G1 X34.149 Y146.257 E9.09056
G1 X33.512 Y145.57 E9.12173
G1 X32.935 Y144.83 E9.15294
G1 X32.423 Y144.044 E9.18414
G1 X31.98 Y143.217 E9.21534
G1 X31.609 Y142.356 E9.24652
G1 X31.313 Y141.466 E9.27772
G1 X31.094 Y140.554 E9.30891
G1 X30.953 Y139.627 E9.3401
G1 X30.893 Y138.738 E9.36973
G1 X30.884 Y138.405 E9.38081
G1 X30.88 Y138.108 E9.39069
G1 X30.881 Y86.104 E11.12035
G1 X30.89 Y85.415 E11.14327
G1 X30.942 Y84.479 E11.17445
G1 X31.074 Y83.55 E11.20566
G1 X31.284 Y82.636 E11.23685
G1 X31.572 Y81.744 E11.26803
G1 X31.934 Y80.879 E11.29922
G1 X32.369 Y80.048 E11.33041
G1 X32.873 Y79.257 E11.36161
G1 X33.443 Y78.512 E11.39281
G1 X34.074 Y77.818 E11.42401
G1 X34.762 Y77.18 E11.45521
G1 X35.501 Y76.604 E11.48638
G1 X36.287 Y76.092 E11.51758
G1 X37.114 Y75.649 E11.54878
G0 F6000 X37.487 Y75.916
G1 F1200 X38.34 Y75.571 E11.57938
G1 X39.22 Y75.3 E11.61001
G1 X40.12 Y75.108 E11.64062
G1 X41.034 Y74.994 E11.67125
G1 X41.592 Y74.963 E11.68984
G1 X41.913 Y74.954 E11.70052
G1 X42.21 Y74.95 E11.7104
G1 X71.925 Y74.95 E12.69872
G1 X74.55 Y74.913 E12.78604
G1 X77.058 Y74.806 E12.86953
G1 X79.578 Y74.628 E12.95356
G1 X82.093 Y74.379 E13.03762
G1 X84.582 Y74.06 E13.12108
G1 X87.099 Y73.664 E13.20582
G1 X89.818 Y73.158 E13.29781
G1 X90.037 Y73.114 E13.30524
G1 X90.947 Y72.973 E13.33587
G1 X91.812 Y72.913 E13.36471
G1 X92.132 Y72.904 E13.37535
G1 X92.43 Y72.9 E13.38527
G1 X127.193 Y72.9 E14.54149
G1 X128.043 Y72.911 E14.56976
G1 X128.962 Y72.964 E14.60038
G1 X129.873 Y73.097 E14.631
G1 X130.769 Y73.308 E14.66162
G1 X131.643 Y73.596 E14.69222
G1 X132.49 Y73.959 E14.72287
G1 X133.301 Y74.394 E14.75348
G1 X134.071 Y74.898 E14.78409
G1 X134.795 Y75.467 E14.81472
G1 X135.467 Y76.097 E14.84535
G1 X136.082 Y76.782 E14.87597
G1 X136.635 Y77.518 E14.90659
G1 X137.122 Y78.299 E14.9372
G1 X137.539 Y79.12 E14.96783
G1 X137.884 Y79.974 E14.99847
G1 X138.153 Y80.854 E15.02907
G1 X138.345 Y81.755 E15.05971
G1 X138.458 Y82.668 E15.09031
G1 X138.487 Y83.212 E15.10843
G1 X138.496 Y83.532 E15.11908
G1 X138.5 Y83.83 E15.12899
G1 X138.499 Y135.895 E16.86068
G1 X138.49 Y136.622 E16.88486
G1 X138.439 Y137.541 E16.91547
G1 X138.308 Y138.453 E16.94612
G1 X138.098 Y139.349 E16.97673
G1 X137.812 Y140.224 E17.00734
G1 X137.451 Y141.071 E17.03797
G1 X137.017 Y141.883 E17.06859
G1 X136.515 Y142.655 E17.09922
G1 X135.947 Y143.38 E17.12985
G1 X135.319 Y144.053 E17.16047
G1 X134.635 Y144.669 E17.19108
G1 X133.9 Y145.223 E17.2217
G1 X133.12 Y145.712 E17.25232
G1 X132.3 Y146.131 E17.28294
G1 X131.447 Y146.477 E17.31356
G1 X130.567 Y146.748 E17.34418
G1 X129.667 Y146.941 E17.3748
G1 X128.753 Y147.056 E17.40544
G1 X128.188 Y147.087 E17.42426
G1 X127.867 Y147.096 E17.43494
G1 X127.57 Y147.1 E17.44482
G1 X101.749 Y147.1 E18.30363
G1 X99.124 Y147.137 E18.39094
G1 X96.616 Y147.244 E18.47444
G1 X94.096 Y147.422 E18.55846
G1 X91.581 Y147.671 E18.64252
G1 X89.092 Y147.99 E18.72598
G1 X86.561 Y148.388 E18.8112
G1 X83.997 Y148.864 E18.89793
G1 X83.832 Y148.892 E18.9035
G1 X82.919 Y149.006 E18.9341
G1 X82.358 Y149.037 E18.95279
G1 X82.039 Y149.046 E18.9634
G1 X81.74 Y149.05 E18.97335
G1 X42.45 Y149.049 E20.28014
G1 X41.752 Y149.04 E20.30336
G1 X40.833 Y148.988 E20.33397
G1 X39.922 Y148.857 E20.36458
G1 X39.026 Y148.647 E20.39519
G1 X38.151 Y148.36 E20.42582
G1 X37.304 Y147.998 E20.45646
G1 X36.492 Y147.564 E20.48708
G1 X35.721 Y147.062 E20.51768
G1 X34.996 Y146.494 E20.54831
G1 X34.323 Y145.865 E20.57895
G1 X33.708 Y145.181 E20.60955
G1 X33.154 Y144.446 E20.64016
G1 X32.666 Y143.665 E20.67079
G1 X32.247 Y142.845 E20.70142
G1 X31.901 Y141.992 E20.73203
G1 X31.631 Y141.112 E20.76265
G1 X31.438 Y140.211 E20.79329
G1 X31.324 Y139.298 E20.8239
G1 X31.293 Y138.727 E20.84292
G1 X31.284 Y138.394 E20.854
G1 X31.28 Y138.108 E20.86351
G1 X31.281 Y86.11 E22.59297
G1 X31.29 Y85.421 E22.61589
G1 X31.342 Y84.501 E22.64654
G1 X31.473 Y83.59 E22.67715
G1 X31.684 Y82.694 E22.70776
G1 X31.971 Y81.819 E22.73839
G1 X32.333 Y80.973 E22.769
G1 X32.767 Y80.161 E22.79962
G1 X33.269 Y79.389 E22.83025
G1 X33.837 Y78.665 E22.86086
G1 X34.466 Y77.992 E22.89149
G1 X35.151 Y77.377 E22.92211
G1 X35.886 Y76.823 E22.95272
G1 X36.667 Y76.335 E22.98335
G1 X37.487 Y75.916 E23.01398
G0 F6000 X37.857 Y76.19
G1 F1200 X38.702 Y75.87 E23.04403
G1 X39.572 Y75.626 E23.07409
G1 X40.459 Y75.46 E23.1041
G1 X41.603 Y75.363 E23.14229
G1 X41.924 Y75.354 E23.15297
G1 X42.21 Y75.35 E23.16248
G1 X71.931 Y75.35 E24.15101
G1 X74.537 Y75.313 E24.23769
G1 X77.102 Y75.204 E24.32308
G1 X79.609 Y75.026 E24.40667
G1 X82.15 Y74.775 E24.4916
G1 X84.658 Y74.454 E24.5757
G1 X87.163 Y74.06 E24.66004
G1 X89.814 Y73.566 E24.74973
G1 X90.115 Y73.506 E24.75994
G1 X91.008 Y73.369 E24.78998
G1 X91.823 Y73.313 E24.81715
G1 X92.143 Y73.304 E24.8278
G1 X92.43 Y73.3 E24.83735
G1 X127.193 Y73.3 E25.99357
G1 X128.037 Y73.311 E26.02164
G1 X128.939 Y73.364 E26.0517
G1 X129.832 Y73.496 E26.08172
G1 X130.71 Y73.707 E26.11176
G1 X131.566 Y73.995 E26.14179
G1 X132.393 Y74.357 E26.17182
G1 X133.185 Y74.792 E26.20187
G1 X133.936 Y75.294 E26.23192
G1 X134.639 Y75.861 E26.26196
G1 X135.289 Y76.488 E26.292
G1 X135.881 Y77.17 E26.32203
G1 X136.411 Y77.901 E26.35206
G1 X136.873 Y78.677 E26.3821
G1 X137.266 Y79.49 E26.41214
G1 X137.584 Y80.335 E26.44217
G1 X137.827 Y81.205 E26.47221
G1 X137.992 Y82.093 E26.50225
G1 X138.087 Y83.223 E26.53997
G1 X138.096 Y83.543 E26.55061
G1 X138.1 Y83.83 E26.56016
G1 X138.099 Y135.89 E28.29168
G1 X138.09 Y136.617 E28.31586
G1 X138.039 Y137.519 E28.34591
G1 X137.908 Y138.413 E28.37597
G1 X137.699 Y139.291 E28.40598
G1 X137.413 Y140.148 E28.43603
G1 X137.052 Y140.976 E28.46608
G1 X136.62 Y141.768 E28.49608
G1 X136.119 Y142.52 E28.52614
G1 X135.553 Y143.224 E28.55618
G1 X134.928 Y143.875 E28.5862
G1 X134.247 Y144.469 E28.61625
G1 X133.516 Y145 E28.6463
G1 X132.742 Y145.464 E28.67632
G1 X131.929 Y145.858 E28.70637
G1 X131.085 Y146.178 E28.73639
G1 X130.215 Y146.423 E28.76645
G1 X129.328 Y146.589 E28.79646
G1 X128.177 Y146.687 E28.83488
G1 X127.856 Y146.696 E28.84556
G1 X127.57 Y146.7 E28.85508
G1 X101.743 Y146.7 E29.71409
G1 X99.137 Y146.737 E29.80077
G1 X96.572 Y146.846 E29.88616
G1 X94.065 Y147.024 E29.96975
G1 X91.524 Y147.275 E30.05468
G1 X89.016 Y147.596 E30.13878
G1 X86.532 Y147.987 E30.22241
G1 X84.091 Y148.441 E30.30499
G1 X83.766 Y148.497 E30.31596
G1 X82.869 Y148.609 E30.34603
G1 X82.347 Y148.637 E30.36341
G1 X82.028 Y148.646 E30.37403
G1 X81.74 Y148.65 E30.38361
G1 X42.455 Y148.649 E31.69023
G1 X41.757 Y148.64 E31.71345
G1 X40.856 Y148.589 E31.74347
G1 X39.962 Y148.457 E31.77352
G1 X39.084 Y148.248 E31.80354
G1 X38.227 Y147.961 E31.8336
G1 X37.4 Y147.6 E31.86361
G1 X36.607 Y147.167 E31.89366
G1 X35.856 Y146.666 E31.92369
G1 X35.152 Y146.1 E31.95373
G1 X34.501 Y145.474 E31.98377
G1 X33.908 Y144.793 E32.01381
G1 X33.378 Y144.062 E32.04384
G1 X32.914 Y143.287 E32.07388
G1 X32.52 Y142.474 E32.10393
G1 X32.2 Y141.63 E32.13395
G1 X31.956 Y140.76 E32.164
G1 X31.79 Y139.872 E32.19405
G1 X31.693 Y138.717 E32.2326
G1 X31.684 Y138.384 E32.24368
G1 X31.68 Y138.108 E32.25286
G1 X31.681 Y86.115 E33.98216
G1 X31.69 Y85.426 E34.00507
G1 X31.742 Y84.524 E34.03513
G1 X31.873 Y83.631 E34.06514
G1 X32.083 Y82.752 E34.0952
G1 X32.369 Y81.896 E34.12522
G1 X32.731 Y81.068 E34.15528
G1 X33.164 Y80.276 E34.1853
G1 X33.665 Y79.525 E34.21533
G1 X34.231 Y78.821 E34.24537
G1 X34.857 Y78.17 E34.27541
G1 X35.539 Y77.577 E34.30547
G1 X36.27 Y77.047 E34.3355
G1 X37.044 Y76.583 E34.36551
G1 X37.857 Y76.19 E34.39555
G1 F2700 E29.39555
;MESH:bottom_case.stl
G0 F6000 X42.3 Y84.885
G0 X42.3 Y85.97
G0 X42.662 Y137.668
G0 X81.47 Y137.85
;TYPE:WALL-INNER
G1 F2700 E34.39555
G1 F1200 X42.48 Y137.85 E35.69236
G1 X42.48 Y86.349 E37.40529
G1 X42.48 Y86.15 E37.41191
G1 X42.679 Y86.15 E37.41619
G1 X81.47 Y86.151 E38.70639
G1 X81.47 Y137.85 E40.4259
G0 F6000 X81.87 Y138.25
;TYPE:WALL-OUTER
G1 F1200 X42.08 Y138.25 E41.74932
G1 X42.08 Y85.75 E43.49548
G1 X81.87 Y85.751 E44.8189
G1 X81.87 Y138.25 E46.56502
G0 F6000 X81.6 Y137.98
G0 X81.36 Y137.46
G0 X81.08 Y137.46
;TYPE:SKIN
G1 F1200 X42.87 Y137.46 E47.83589
G1 X42.87 Y86.54 E49.5295
G1 X81.08 Y86.541 E50.80037
G1 X81.08 Y137.46 E52.49394
G1 F2700 E47.49394
G0 F6000 X81.36 Y137.46
G0 X43.395 Y137.74
G0 X43.395 Y137.298
G1 F2700 E52.49394
G1 F1200 X43.029 Y136.933 E52.51113
G0 F6000 X43.029 Y136.367
G1 F1200 X43.96 Y137.298 E52.55493
G0 F6000 X44.526 Y137.298
G1 F1200 X43.029 Y135.801 E52.62534
G0 F6000 X43.029 Y135.236
G1 F1200 X45.092 Y137.298 E52.72235
G0 F6000 X45.657 Y137.298
G1 F1200 X43.029 Y134.67 E52.84597
G0 F6000 X43.029 Y134.104
G1 F1200 X46.223 Y137.298 E52.9962
G0 F6000 X46.789 Y137.298
G1 F1200 X43.029 Y133.539 E53.17304
G0 F6000 X43.029 Y132.973
G1 F1200 X47.354 Y137.298 E53.37647
G0 F6000 X47.92 Y137.298
G1 F1200 X43.029 Y132.407 E53.60653
G0 F6000 X43.029 Y131.842
G1 F1200 X48.486 Y137.298 E53.86319
G0 F6000 X49.051 Y137.298
G1 F1200 X43.029 Y131.276 E54.14644
G0 F6000 X43.029 Y130.71
G1 F1200 X49.617 Y137.298 E54.45632
G0 F6000 X50.183 Y137.298
G1 F1200 X43.029 Y130.145 E54.7928
G0 F6000 X43.029 Y129.579
G1 F1200 X50.749 Y137.298 E55.1559
G0 F6000 X51.314 Y137.298
G1 F1200 X43.029 Y129.013 E55.5456
G0 F6000 X43.029 Y128.448
G1 F1200 X51.88 Y137.298 E55.9619
G0 F6000 X52.446 Y137.298
G1 F1200 X43.029 Y127.882 E56.40483
G0 F6000 X43.029 Y127.316
G1 F1200 X53.011 Y137.298 E56.87435
G0 F6000 X53.577 Y137.298
G1 F1200 X43.029 Y126.751 E57.37047
G0 F6000 X43.029 Y126.185
G1 F1200 X54.143 Y137.298 E57.89322
G0 F6000 X54.708 Y137.298
G1 F1200 X43.029 Y125.619 E58.44256
G0 F6000 X43.029 Y125.053
G1 F1200 X55.274 Y137.298 E59.01853
G0 F6000 X55.84 Y137.298
G1 F1200 X43.029 Y124.488 E59.6211
G0 F6000 X43.029 Y123.922
G1 F1200 X56.405 Y137.298 E60.25026
G0 F6000 X56.971 Y137.298
G1 F1200 X43.029 Y123.356 E60.90605
G0 F6000 X43.029 Y122.791
G1 F1200 X57.537 Y137.298 E61.58844
G0 F6000 X58.102 Y137.298
G1 F1200 X43.029 Y122.225 E62.29743
G0 F6000 X43.029 Y121.659
G1 F1200 X58.668 Y137.298 E63.03304
G0 F6000 X59.234 Y137.298
G1 F1200 X43.029 Y121.094 E63.79525
G0 F6000 X43.029 Y120.528
G1 F1200 X59.8 Y137.298 E64.58408
G0 F6000 X60.365 Y137.298
G1 F1200 X43.029 Y119.962 E65.39951
G0 F6000 X43.029 Y119.397
G1 F1200 X60.931 Y137.298 E66.24154
G0 F6000 X61.497 Y137.298
G1 F1200 X43.029 Y118.831 E67.1102
G0 F6000 X43.029 Y118.265
G1 F1200 X62.062 Y137.298 E68.00545
G0 F6000 X62.628 Y137.298
G1 F1200 X43.029 Y117.7 E68.92731
G0 F6000 X43.029 Y117.134
G1 F1200 X63.194 Y137.298 E69.87578
G0 F6000 X63.759 Y137.298
G1 F1200 X43.029 Y116.568 E70.85086
G0 F6000 X43.029 Y116.002
G1 F1200 X64.325 Y137.298 E71.85256
G0 F6000 X64.891 Y137.298
G1 F1200 X43.029 Y115.437 E72.88085
G0 F6000 X43.029 Y114.871
G1 F1200 X65.456 Y137.298 E73.93575
G0 F6000 X66.022 Y137.298
G1 F1200 X43.029 Y114.305 E75.01727
G0 F6000 X43.029 Y113.74
G1 F1200 X66.588 Y137.298 E76.12539
G0 F6000 X67.153 Y137.298
G1 F1200 X43.029 Y113.174 E77.26011
G0 F6000 X43.029 Y112.608
G1 F1200 X67.719 Y137.298 E78.42145
G0 F6000 X68.285 Y137.298
G1 F1200 X43.029 Y112.043 E79.60939
G0 F6000 X43.029 Y111.477
G1 F1200 X68.85 Y137.298 E80.82393
G0 F6000 X69.416 Y137.298
G1 F1200 X43.029 Y110.911 E82.0651
G0 F6000 X43.029 Y110.346
G1 F1200 X69.982 Y137.298 E83.33286
G0 F6000 X70.548 Y137.298
G1 F1200 X43.029 Y109.78 E84.62725
G0 F6000 X43.029 Y109.214
G1 F1200 X71.113 Y137.298 E85.94823
G0 F6000 X71.679 Y137.298
G1 F1200 X43.029 Y108.649 E87.29582
G0 F6000 X43.029 Y108.083
G1 F1200 X72.245 Y137.298 E88.67002
G0 F6000 X72.81 Y137.298
G1 F1200 X43.029 Y107.517 E90.07083
G0 F6000 X43.029 Y106.952
G1 F1200 X73.376 Y137.298 E91.49824
G0 F6000 X73.942 Y137.298
G1 F1200 X43.029 Y106.386 E92.95227
G0 F6000 X43.029 Y105.82
G1 F1200 X74.507 Y137.298 E94.4329
G0 F6000 X75.073 Y137.298
G1 F1200 X43.029 Y105.254 E95.94015
G0 F6000 X43.029 Y104.689
G1 F1200 X75.639 Y137.298 E97.474
G0 F6000 X76.204 Y137.298
G1 F1200 X43.029 Y104.123 E99.03445
G0 F6000 X43.029 Y103.557
G1 F1200 X76.77 Y137.298 E100.62152
G0 F6000 X77.336 Y137.298
G1 F1200 X43.029 Y102.992 E102.23519
G0 F6000 X43.029 Y102.426
G1 F1200 X77.901 Y137.298 E103.87547
G0 F6000 X78.467 Y137.298
G1 F1200 X43.029 Y101.86 E105.54236
G0 F6000 X43.029 Y101.295
G1 F1200 X79.033 Y137.298 E107.23586
G0 F6000 X79.599 Y137.298
G1 F1200 X43.029 Y100.729 E108.95597
G0 F6000 X43.029 Y100.163
G1 F1200 X80.164 Y137.298 E110.70269
G0 F6000 X80.73 Y137.298
G1 F1200 X43.029 Y99.598 E112.476
G0 F6000 X43.029 Y99.032
G1 F1200 X80.919 Y136.922 E114.25823
G0 F6000 X80.919 Y136.357
G1 F1200 X43.029 Y98.466 E116.04049
G0 F6000 X43.029 Y97.901
G1 F1200 X80.919 Y135.791 E117.82272
G0 F6000 X80.919 Y135.225
