;FLAVOR:Marlin
;TIME:7278
;Filament used: 4.30034m
;Layer height: 0.2
;MINX:30.868
;MINY:72.5
;MINZ:0.2
;MAXX:138.9
;MAXY:149.45
;MAXZ:19
;Generated with Creality Slicer 4.8.2-67
M140 S50
M105
M190 S50
M104 S200
M105
M109 S200
M82 ;absolute extrusion mode
M201 X500.00 Y500.00 Z100.00 E5000.00 ;Setup machine max acceleration
M203 X500.00 Y500.00 Z10.00 E50.00 ;Setup machine max feedrate
M204 P500.00 R1000.00 T500.00 ;Setup Print/Retract/Travel acceleration
M205 X8.00 Y8.00 Z0.40 E5.00 ;Setup Jerk
M220 S100 ;Reset Feedrate
M221 S100 ;Reset Flowrate

G28 ;Home

G92 E0 ;Reset Extruder
G1 Z2.0 F3000 ;Move Z Axis up
G1 X10.1 Y20 Z0.28 F5000.0 ;Move to start position
G1 X10.1 Y200.0 Z0.28 F1500.0 E15 ;Draw the first line
G1 X10.4 Y200.0 Z0.28 F5000.0 ;Move to side a little
G1 X10.4 Y20 Z0.28 F1500.0 E30 ;Draw the second line
G92 E0 ;Reset Extruder
G1 Z2.0 F3000 ;Move Z Axis up

G92 E0
G92 E0
G1 F2700 E-5
;LAYER_COUNT:95
;LAYER:0
M107
G0 F6000 X37.102 Y75.649 Z0.2
;TYPE:SKIRT
G1 F2700 E0
G1 F1200 X37.964 Y75.279 E0.0312
G1 X38.854 Y74.983 E0.0624
G1 X39.766 Y74.764 E0.09359
G1 X40.693 Y74.623 E0.12478
G1 X41.569 Y74.563 E0.15398
G1 X41.89 Y74.554 E0.16466
G1 X42.198 Y74.55 E0.17491
G1 X71.919 Y74.55 E1.16343
G1 X74.527 Y74.513 E1.25018
G1 X77.048 Y74.406 E1.33411
G1 X79.543 Y74.229 E1.4173
G1 X82.043 Y73.981 E1.50086
G1 X84.536 Y73.662 E1.58445
G1 X87.035 Y73.27 E1.66859
G1 X89.668 Y72.779 E1.75767
G1 X89.959 Y72.721 E1.76754
G1 X90.886 Y72.577 E1.79874
G1 X91.801 Y72.513 E1.82925
G1 X92.121 Y72.504 E1.8399
G1 X92.43 Y72.5 E1.85017
G1 X127.193 Y72.5 E3.0064
G1 X128.049 Y72.511 E3.03487
G1 X128.985 Y72.565 E3.06605
G1 X129.913 Y72.697 E3.09723
G1 X130.827 Y72.909 E3.12843
G1 X131.719 Y73.198 E3.15962
G1 X132.584 Y73.561 E3.19082
G1 X133.414 Y73.997 E3.222
G1 X134.205 Y74.502 E3.25322
G1 X134.949 Y75.073 E3.28441
G1 X135.642 Y75.705 E3.31561
G1 X136.279 Y76.393 E3.34679
G1 X136.854 Y77.134 E3.37799
G1 X137.365 Y77.92 E3.40917
G1 X137.807 Y78.748 E3.44039
G1 X138.176 Y79.61 E3.47157
G1 X138.471 Y80.5 E3.50276
G1 X138.689 Y81.412 E3.53395
G1 X138.829 Y82.34 E3.56516
G1 X138.887 Y83.201 E3.59386
G1 X138.896 Y83.521 E3.60451
G1 X138.9 Y83.83 E3.61479
G1 X138.899 Y135.9 E5.34664
G1 X138.89 Y136.627 E5.37082
G1 X138.839 Y137.564 E5.40204
G1 X138.707 Y138.492 E5.43321
G1 X138.498 Y139.406 E5.4644
G1 X138.211 Y140.299 E5.49559
G1 X137.849 Y141.165 E5.52681
G1 X137.415 Y141.996 E5.55799
G1 X136.911 Y142.787 E5.58919
G1 X136.342 Y143.532 E5.62037
G1 X135.711 Y144.227 E5.65159
G1 X135.024 Y144.865 E5.68277
G1 X134.285 Y145.442 E5.71396
G1 X133.499 Y145.954 E5.74516
G1 X132.673 Y146.397 E5.77633
G1 X131.811 Y146.769 E5.80756
G1 X130.922 Y147.065 E5.83872
G1 X130.01 Y147.285 E5.86993
G1 X129.083 Y147.426 E5.90111
G1 X128.199 Y147.487 E5.93058
G1 X127.878 Y147.496 E5.94126
G1 X127.57 Y147.5 E5.95151
G1 X101.817 Y147.5 E6.80806
G1 X99.209 Y147.537 E6.89481
G1 X96.688 Y147.644 E6.97873
G1 X94.193 Y147.821 E7.06193
G1 X91.693 Y148.069 E7.14548
G1 X89.2 Y148.388 E7.22908
G1 X86.687 Y148.783 E7.31369
G1 X84.126 Y149.258 E7.40032
G1 X83.961 Y149.286 E7.40589
G1 X83.031 Y149.403 E7.43706
G1 X82.431 Y149.437 E7.45705
G1 X82.112 Y149.446 E7.46766
G1 X81.802 Y149.45 E7.47797
G1 X42.433 Y149.449 E8.78739
G1 X41.735 Y149.44 E8.81061
G1 X40.799 Y149.388 E8.84179
G1 X39.87 Y149.256 E8.873
G1 X38.956 Y149.046 E8.90419
G1 X38.063 Y148.759 E8.93539
G1 X37.198 Y148.396 E8.96659
G1 X36.367 Y147.962 E8.99777
G1 X35.576 Y147.458 E9.02897
G1 X34.831 Y146.888 E9.06017
G1 X34.137 Y146.257 E9.09136
G1 X33.5 Y145.57 E9.12252
G1 X32.923 Y144.83 E9.15373
G1 X32.411 Y144.044 E9.18493
G1 X31.968 Y143.217 E9.21614
G1 X31.597 Y142.356 E9.24732
G1 X31.301 Y141.466 E9.27852
G1 X31.082 Y140.554 E9.30971
G1 X30.941 Y139.627 E9.3409
G1 X30.881 Y138.738 E9.37053
G1 X30.872 Y138.405 E9.38161
G1 X30.868 Y138.108 E9.39149
G1 X30.869 Y86.104 E11.12115
G1 X30.878 Y85.415 E11.14407
G1 X30.93 Y84.479 E11.17525
G1 X31.062 Y83.55 E11.20646
G1 X31.272 Y82.636 E11.23765
G1 X31.56 Y81.744 E11.26883
G1 X31.922 Y80.879 E11.30001
G1 X32.357 Y80.048 E11.33121
G1 X32.861 Y79.257 E11.36241
G1 X33.431 Y78.512 E11.39361
G1 X34.062 Y77.818 E11.4248
G1 X34.75 Y77.18 E11.45601
G1 X35.489 Y76.604 E11.48717
G1 X36.275 Y76.092 E11.51837
G1 X37.102 Y75.649 E11.54958
G0 F6000 X37.475 Y75.916
G1 F1200 X38.328 Y75.571 E11.58018
G1 X39.208 Y75.3 E11.61081
G1 X40.108 Y75.108 E11.64141
G1 X41.022 Y74.994 E11.67205
G1 X41.58 Y74.963 E11.69064
G1 X41.901 Y74.954 E11.70132
G1 X42.198 Y74.95 E11.7112
G1 X71.925 Y74.95 E12.69992
G1 X74.55 Y74.913 E12.78724
G1 X77.058 Y74.806 E12.87073
G1 X79.578 Y74.628 E12.95476
G1 X82.093 Y74.379 E13.03881
G1 X84.582 Y74.06 E13.12227
G1 X87.099 Y73.664 E13.20702
G1 X89.818 Y73.158 E13.29901
G1 X90.037 Y73.114 E13.30644
G1 X90.947 Y72.973 E13.33706
G1 X91.812 Y72.913 E13.3659
G1 X92.132 Y72.904 E13.37655
G1 X92.43 Y72.9 E13.38646
G1 X127.193 Y72.9 E14.54269
G1 X128.043 Y72.911 E14.57096
G1 X128.962 Y72.964 E14.60158
G1 X129.873 Y73.097 E14.6322
G1 X130.769 Y73.308 E14.66281
G1 X131.643 Y73.596 E14.69342
G1 X132.49 Y73.959 E14.72407
G1 X133.301 Y74.394 E14.75468
G1 X134.071 Y74.898 E14.78529
G1 X134.795 Y75.467 E14.81592
G1 X135.467 Y76.097 E14.84655
G1 X136.082 Y76.782 E14.87717
G1 X136.635 Y77.518 E14.90779
G1 X137.122 Y78.299 E14.9384
G1 X137.539 Y79.12 E14.96903
G1 X137.884 Y79.974 E14.99966
G1 X138.153 Y80.854 E15.03027
G1 X138.345 Y81.755 E15.06091
G1 X138.458 Y82.668 E15.09151
G1 X138.487 Y83.212 E15.10963
G1 X138.496 Y83.532 E15.12027
G1 X138.5 Y83.83 E15.13019
G1 X138.499 Y135.895 E16.86188
G1 X138.49 Y136.622 E16.88606
G1 X138.439 Y137.541 E16.91667
G1 X138.308 Y138.453 E16.94732
G1 X138.098 Y139.349 E16.97792
G1 X137.812 Y140.224 E17.00854
G1 X137.451 Y141.071 E17.03917
G1 X137.017 Y141.883 E17.06979
G1 X136.515 Y142.655 E17.10042
G1 X135.947 Y143.38 E17.13105
G1 X135.319 Y144.053 E17.16166
G1 X134.635 Y144.669 E17.19228
G1 X133.9 Y145.223 E17.22289
G1 X133.12 Y145.712 E17.25351
G1 X132.3 Y146.131 E17.28414
G1 X131.447 Y146.477 E17.31476
G1 X130.567 Y146.748 E17.34538
G1 X129.667 Y146.941 E17.376
G1 X128.753 Y147.056 E17.40664
G1 X128.188 Y147.087 E17.42546
G1 X127.867 Y147.096 E17.43614
G1 X127.57 Y147.1 E17.44602
G1 X101.811 Y147.1 E18.30276
G1 X99.186 Y147.137 E18.39008
G1 X96.678 Y147.244 E18.47357
G1 X94.158 Y147.422 E18.5576
G1 X91.643 Y147.671 E18.64166
G1 X89.154 Y147.99 E18.72512
G1 X86.623 Y148.388 E18.81033
G1 X84.059 Y148.864 E18.89707
G1 X83.894 Y148.892 E18.90263
G1 X82.981 Y149.006 E18.93324
G1 X82.42 Y149.037 E18.95192
G1 X82.101 Y149.046 E18.96254
G1 X81.802 Y149.05 E18.97248
G1 X42.438 Y149.049 E20.28174
G1 X41.74 Y149.04 E20.30495
G1 X40.821 Y148.988 E20.33557
G1 X39.91 Y148.857 E20.36618
G1 X39.014 Y148.647 E20.39679
G1 X38.139 Y148.36 E20.42742
G1 X37.292 Y147.998 E20.45805
G1 X36.48 Y147.564 E20.48868
G1 X35.709 Y147.062 E20.51928
G1 X34.984 Y146.494 E20.54991
G1 X34.311 Y145.865 E20.58055
G1 X33.696 Y145.181 E20.61114
G1 X33.142 Y144.446 E20.64175
G1 X32.654 Y143.665 E20.67238
G1 X32.235 Y142.845 E20.70301
G1 X31.889 Y141.992 E20.73363
G1 X31.619 Y141.112 E20.76424
G1 X31.426 Y140.211 E20.79489
G1 X31.312 Y139.298 E20.82549
G1 X31.281 Y138.727 E20.84451
G1 X31.272 Y138.394 E20.85559
G1 X31.268 Y138.108 E20.86511
G1 X31.269 Y86.11 E22.59457
G1 X31.278 Y85.421 E22.61748
G1 X31.33 Y84.501 E22.64813
G1 X31.461 Y83.59 E22.67874
G1 X31.672 Y82.694 E22.70936
G1 X31.959 Y81.819 E22.73999
G1 X32.321 Y80.973 E22.77059
G1 X32.755 Y80.161 E22.80122
G1 X33.257 Y79.389 E22.83185
G1 X33.825 Y78.665 E22.86245
G1 X34.454 Y77.992 E22.89309
G1 X35.139 Y77.377 E22.92371
G1 X35.874 Y76.823 E22.95432
G1 X36.655 Y76.335 E22.98495
G1 X37.475 Y75.916 E23.01558
G0 F6000 X37.845 Y76.19
G1 F1200 X38.69 Y75.87 E23.04563
G1 X39.56 Y75.626 E23.07568
G1 X40.447 Y75.46 E23.1057
G1 X41.591 Y75.363 E23.14388
G1 X41.912 Y75.354 E23.15457
G1 X42.198 Y75.35 E23.16408
G1 X71.931 Y75.35 E24.153
G1 X74.537 Y75.313 E24.23969
G1 X77.102 Y75.204 E24.32508
G1 X79.609 Y75.026 E24.40867
G1 X82.15 Y74.775 E24.49359
G1 X84.658 Y74.454 E24.57769
G1 X87.163 Y74.06 E24.66203
G1 X89.814 Y73.566 E24.75172
G1 X90.115 Y73.506 E24.76193
G1 X91.008 Y73.369 E24.79198
G1 X91.823 Y73.313 E24.81915
G1 X92.143 Y73.304 E24.8298
G1 X92.43 Y73.3 E24.83934
G1 X127.193 Y73.3 E25.99557
G1 X128.037 Y73.311 E26.02364
G1 X128.939 Y73.364 E26.05369
G1 X129.832 Y73.496 E26.08372
G1 X130.71 Y73.707 E26.11375
G1 X131.566 Y73.995 E26.14379
G1 X132.393 Y74.357 E26.17382
G1 X133.185 Y74.792 E26.20387
G1 X133.936 Y75.294 E26.23391
G1 X134.639 Y75.861 E26.26395
G1 X135.289 Y76.488 E26.29399
G1 X135.881 Y77.17 E26.32403
G1 X136.411 Y77.901 E26.35406
G1 X136.873 Y78.677 E26.3841
G1 X137.266 Y79.49 E26.41413
G1 X137.584 Y80.335 E26.44416
G1 X137.827 Y81.205 E26.4742
G1 X137.992 Y82.093 E26.50425
G1 X138.087 Y83.223 E26.54196
G1 X138.096 Y83.543 E26.55261
G1 X138.1 Y83.83 E26.56216
G1 X138.099 Y135.89 E28.29368
G1 X138.09 Y136.617 E28.31786
G1 X138.039 Y137.519 E28.34791
G1 X137.908 Y138.413 E28.37796
G1 X137.699 Y139.291 E28.40798
G1 X137.413 Y140.148 E28.43803
G1 X137.052 Y140.976 E28.46807
G1 X136.62 Y141.768 E28.49808
G1 X136.119 Y142.52 E28.52813
G1 X135.553 Y143.224 E28.55818
G1 X134.928 Y143.875 E28.58819
G1 X134.247 Y144.469 E28.61825
G1 X133.516 Y145 E28.6483
G1 X132.742 Y145.464 E28.67831
G1 X131.929 Y145.858 E28.70836
G1 X131.085 Y146.178 E28.73838
G1 X130.215 Y146.423 E28.76844
G1 X129.328 Y146.589 E28.79846
G1 X128.177 Y146.687 E28.83688
G1 X127.856 Y146.696 E28.84756
G1 X127.57 Y146.7 E28.85707
G1 X101.805 Y146.7 E29.71402
G1 X99.199 Y146.737 E29.80071
G1 X96.634 Y146.846 E29.88609
G1 X94.127 Y147.024 E29.96969
G1 X91.586 Y147.275 E30.05461
G1 X89.078 Y147.596 E30.13871
G1 X86.594 Y147.987 E30.22235
G1 X84.153 Y148.441 E30.30493
G1 X83.828 Y148.497 E30.31589
G1 X82.931 Y148.609 E30.34596
G1 X82.409 Y148.637 E30.36335
G1 X82.09 Y148.646 E30.37396
G1 X81.802 Y148.65 E30.38354
G1 X42.443 Y148.649 E31.69263
G1 X41.745 Y148.64 E31.71584
G1 X40.844 Y148.589 E31.74586
G1 X39.95 Y148.457 E31.77592
G1 X39.072 Y148.248 E31.80594
G1 X38.215 Y147.961 E31.836
G1 X37.388 Y147.6 E31.86601
G1 X36.595 Y147.167 E31.89606
G1 X35.844 Y146.666 E31.92609
G1 X35.14 Y146.1 E31.95613
G1 X34.489 Y145.474 E31.98617
G1 X33.896 Y144.793 E32.0162
G1 X33.366 Y144.062 E32.04623
G1 X32.902 Y143.287 E32.07628
G1 X32.508 Y142.474 E32.10633
G1 X32.188 Y141.63 E32.13635
G1 X31.944 Y140.76 E32.1664
G1 X31.778 Y139.872 E32.19645
G1 X31.681 Y138.717 E32.235
G1 X31.672 Y138.384 E32.24608
G1 X31.668 Y138.108 E32.25526
G1 X31.669 Y86.115 E33.98455
G1 X31.678 Y85.426 E34.00747
G1 X31.73 Y84.524 E34.03752
G1 X31.861 Y83.631 E34.06754
G1 X32.071 Y82.752 E34.0976
G1 X32.357 Y81.896 E34.12762
G1 X32.719 Y81.068 E34.15767
G1 X33.152 Y80.276 E34.18769
G1 X33.653 Y79.525 E34.21772
G1 X34.219 Y78.821 E34.24776
G1 X34.845 Y78.17 E34.2778
G1 X35.527 Y77.577 E34.30786
G1 X36.258 Y77.047 E34.33789
G1 X37.032 Y76.583 E34.36791
G1 X37.845 Y76.19 E34.39794
G1 F2700 E29.39794
;MESH:bottom_case.stl
G0 F6000 X42.288 Y84.885
G0 X42.288 Y85.97
G0 X42.65 Y137.668
G0 X81.532 Y137.85
;TYPE:WALL-INNER
G1 F2700 E34.39794
G1 F1200 X42.468 Y137.85 E35.69722
G1 X42.468 Y86.15 E37.41677
G1 X81.532 Y86.15 E38.71604
G1 X81.532 Y137.85 E40.43559
G0 F6000 X81.932 Y138.25
;TYPE:WALL-OUTER
G1 F1200 X42.068 Y138.25 E41.76147
G1 X42.068 Y85.75 E43.50763
G1 X81.932 Y85.75 E44.83351
G1 X81.932 Y138.25 E46.57967
G0 F6000 X81.662 Y137.98
G0 X81.422 Y137.46
G0 X81.142 Y137.46
;TYPE:SKIN
G1 F1200 X42.858 Y137.46 E47.853
G1 X42.858 Y86.54 E49.5466
G1 X81.142 Y86.54 E50.81993
G1 X81.142 Y137.46 E52.51354
G1 F2700 E47.51354
G0 F6000 X81.422 Y137.46
G0 X43.395 Y137.74
G0 X43.395 Y137.298
G1 F2700 E52.51354
G1 F1200 X43.018 Y136.922 E52.53125
G0 F6000 X43.018 Y136.356
G1 F1200 X43.96 Y137.298 E52.57556
G0 F6000 X44.526 Y137.298
G1 F1200 X43.018 Y135.79 E52.64649
G0 F6000 X43.018 Y135.224
G1 F1200 X45.092 Y137.298 E52.74404
G0 F6000 X45.657 Y137.298
G1 F1200 X43.018 Y134.659 E52.86818
G0 F6000 X43.018 Y134.093
G1 F1200 X46.223 Y137.298 E53.01893
G0 F6000 X46.789 Y137.298
G1 F1200 X43.018 Y133.527 E53.19631
G0 F6000 X43.018 Y132.962
G1 F1200 X47.354 Y137.298 E53.40026
G0 F6000 X47.92 Y137.298
G1 F1200 X43.018 Y132.396 E53.63083
G0 F6000 X43.018 Y131.83
G1 F1200 X48.486 Y137.298 E53.88803
G0 F6000 X49.051 Y137.298
G1 F1200 X43.018 Y131.265 E54.1718
G0 F6000 X43.018 Y130.699
G1 F1200 X49.617 Y137.298 E54.4822
G0 F6000 X50.183 Y137.298
G1 F1200 X43.018 Y130.133 E54.81922
G0 F6000 X43.018 Y129.568
G1 F1200 X50.749 Y137.298 E55.18284
G0 F6000 X51.314 Y137.298
G1 F1200 X43.018 Y129.002 E55.57306
G0 F6000 X43.018 Y128.436
G1 F1200 X51.88 Y137.298 E55.9899
G0 F6000 X52.446 Y137.298
G1 F1200 X43.018 Y127.871 E56.43334
G0 F6000 X43.018 Y127.305
G1 F1200 X53.011 Y137.298 E56.90338
G0 F6000 X53.577 Y137.298
G1 F1200 X43.018 Y126.739 E57.40004
G0 F6000 X43.018 Y126.174
G1 F1200 X54.143 Y137.298 E57.92331
G0 F6000 X54.708 Y137.298
G1 F1200 X43.018 Y125.608 E58.47317
G0 F6000 X43.018 Y125.042
G1 F1200 X55.274 Y137.298 E59.04965
G0 F6000 X55.84 Y137.298
G1 F1200 X43.018 Y124.476 E59.65276
G0 F6000 X43.018 Y123.911
G1 F1200 X56.405 Y137.298 E60.28244
G0 F6000 X56.971 Y137.298
G1 F1200 X43.018 Y123.345 E60.93875
G0 F6000 X43.018 Y122.779
G1 F1200 X57.537 Y137.298 E61.62168
G0 F6000 X58.102 Y137.298
G1 F1200 X43.018 Y122.214 E62.33118
G0 F6000 X43.018 Y121.648
G1 F1200 X58.668 Y137.298 E63.06731
G0 F6000 X59.234 Y137.298
G1 F1200 X43.018 Y121.082 E63.83006
G0 F6000 X43.018 Y120.517
G1 F1200 X59.8 Y137.298 E64.61941
G0 F6000 X60.365 Y137.298
G1 F1200 X43.018 Y119.951 E65.43536
G0 F6000 X43.018 Y119.385
G1 F1200 X60.931 Y137.298 E66.27793
G0 F6000 X61.497 Y137.298
G1 F1200 X43.018 Y118.82 E67.14711
G0 F6000 X43.018 Y118.254
G1 F1200 X62.062 Y137.298 E68.04288
G0 F6000 X62.628 Y137.298
G1 F1200 X43.018 Y117.688 E68.96527
G0 F6000 X43.018 Y117.123
G1 F1200 X63.194 Y137.298 E69.91427
G0 F6000 X63.759 Y137.298
G1 F1200 X43.018 Y116.557 E70.88986
G0 F6000 X43.018 Y115.991
G1 F1200 X64.325 Y137.298 E71.89208
G0 F6000 X64.891 Y137.298
G1 F1200 X43.018 Y115.425 E72.92091
G0 F6000 X43.018 Y114.86
G1 F1200 X65.456 Y137.298 E73.97633
G0 F6000 X66.022 Y137.298
G1 F1200 X43.018 Y114.294 E75.05837
G0 F6000 X43.018 Y113.728
G1 F1200 X66.588 Y137.298 E76.16703
G0 F6000 X67.153 Y137.298
G1 F1200 X43.018 Y113.163 E77.30226
G0 F6000 X43.018 Y112.597
G1 F1200 X67.719 Y137.298 E78.46412
G0 F6000 X68.285 Y137.298
G1 F1200 X43.018 Y112.031 E79.6526
G0 F6000 X43.018 Y111.466
G1 F1200 X68.85 Y137.298 E80.86766
G0 F6000 X69.416 Y137.298
G1 F1200 X43.018 Y110.9 E82.10934
G0 F6000 X43.018 Y110.334
G1 F1200 X69.982 Y137.298 E83.37765
G0 F6000 X70.548 Y137.298
G1 F1200 X43.018 Y109.769 E84.67255
G0 F6000 X43.018 Y109.203
G1 F1200 X71.113 Y137.298 E85.99405
G0 F6000 X71.679 Y137.298
G1 F1200 X43.018 Y108.637 E87.34218
G0 F6000 X43.018 Y108.072
G1 F1200 X72.245 Y137.298 E88.7169
G0 F6000 X72.81 Y137.298
G1 F1200 X43.018 Y107.506 E90.11823
G0 F6000 X43.018 Y106.94
G1 F1200 X73.376 Y137.298 E91.54618
G0 F6000 X73.942 Y137.298
G1 F1200 X43.018 Y106.375 E93.00072
G0 F6000 X43.018 Y105.809
G1 F1200 X74.507 Y137.298 E94.48187
G0 F6000 X75.073 Y137.298
G1 F1200 X43.018 Y105.243 E95.98964
G0 F6000 X43.018 Y104.677
G1 F1200 X75.639 Y137.298 E97.52403
G0 F6000 X76.204 Y137.298
G1 F1200 X43.018 Y104.112 E99.085
G0 F6000 X43.018 Y103.546
G1 F1200 X76.77 Y137.298 E100.67259
G0 F6000 X77.336 Y137.298
G1 F1200 X43.018 Y102.98 E102.2868
G0 F6000 X43.018 Y102.415
G1 F1200 X77.901 Y137.298 E103.92759
G0 F6000 X78.467 Y137.298
G1 F1200 X43.018 Y101.849 E105.595
G0 F6000 X43.018 Y101.283
G1 F1200 X79.033 Y137.298 E107.28904
G0 F6000 X79.599 Y137.298
G1 F1200 X43.018 Y100.718 E109.00967
G0 F6000 X43.018 Y100.152
G1 F1200 X80.164 Y137.298 E110.75691
G0 F6000 X80.73 Y137.298
G1 F1200 X43.018 Y99.586 E112.53076
G0 F6000 X43.018 Y99.021
G1 F1200 X80.982 Y136.984 E114.31645
G0 F6000 X80.982 Y136.419
G1 F1200 X43.018 Y98.455 E116.10216
G0 F6000 X43.018 Y97.889
G1 F1200 X80.982 Y135.853 E117.88787
G0 F6000 X80.982 Y135.287
G1 F1200 X43.018 Y97.324 E119.67356
